X:1
T:Come to Jesus
T:Come to Jesus
T:John Harrison Tenney
T:Eden Reeder Latta, 1878
T:Public Domain Courtesy of the Cyber Hymnal™
C:John Harrison Tenney
Z:Public Domain
Z:Courtesy of the Cyber Hymnal™
%%score ( 1 2 ) ( 3 4 )
L:1/8
Q:1/4=110
M:4/4
K:D
V:1 treble 
V:2 treble 
V:3 bass 
V:4 bass 
V:1
 [DF]>[EG] | [FA]2 D2 [Gd]2 [GB]2 | [FA]4 [DF]2 D>[DE] | [DF]2 [EG]2 [FA]2 [DF]2 | %4
w: 1.~Come to|Je- sus! He will|save you, Though your|sins as crim- son|
w: 2.~Come to|Je- sus! do not|tar- ry, En- ter|in at mer- cy’s|
w: 3.~Come to|Je- sus, dy- ing|sin- ner! O- ther|Sav- ior there is|
 [CE]6 [DF]>[EG] | [FA]2 D2 [Gd]2 [GB]2 | [FA]4 [DF]2 [FA]>[FB] | [Ec]2 [Fd]2 [Ec]2 [DB]2 | %8
w: glow; If you|give your heart to|Je- sus, He will|make it white as|
w: gate; Oh, de-|lay not til the|mor- row, Lest thy|com- ing be too|
w: none; He will|share with you His|glo- ry, When your|pil- grim- age is|
 [CA]6 |:"^Refrain" [FA]>[GB] | [FA]4 [DF]2 [Fd]>[GB] |1 [FA]4 [DF]2 [Ge]>[Fd] | %12
w: snow.||||
w: late.|Come to|Je- sus! Come to|Je- sus! Come to|
w: done.||||
 [Ec]2 [GB]2 [FA]2 [EG]2 | [DF]6 :|2 [Fd]>[Fd] || [Ge]2 [Ge]2 [Fd]2 [Ec]>[Ec] | [Fd]6 |] %17
w: |||||
w: Je- sus! come to-|day!|Come to|Je- sus! come, come to-|day!|
w: |||||
V:2
 x2 | x2 D2 x4 | x6 D3/2 x/ | x8 | x8 | x2 D2 x4 | x8 | x8 | x6 |: x2 | x8 |1 x8 | x8 | x6 :|2 %14
 x2 || x8 | x6 |] %17
V:3
 [D,A,]>[D,A,] | [D,D]2 [F,=C]2 [G,B,]2 [G,D]2 | [D,D]4 [D,A,]2 [D,F,]>[D,G,] | %3
w: ~ ~|~ ~ ~ ~|~ ~ ~ ~|
 [D,A,]2 [D,A,]2 [D,D]2 [D,A,]2 | [A,,A,]6 [D,A,]>[D,A,] | [D,D]2 [F,=C]2 [G,B,]2 [G,D]2 | %6
w: ~ ~ ~ ~|~ ~ ~|~ ~ ~ ~|
 [D,D]4 [D,A,]2 [D,D]>[D,A,] | [E,A,]2 [E,^G,]2 [E,A,]2 [E,G,]2 | [A,,A,]6 |: z2 | %10
w: ~ ~ ~ ~|~ ~ ~ ~|~||
 [D,D]2 [D,D]>[D,D] [D,A,]2 z2 |1 [D,D]2 [D,D]>[D,D] [D,A,]2 [A,,A,]>[A,,A,] | %12
w: Come, come to- day!|Come, come to- day! Come to|
 [A,,A,]2 [A,,C]2 [A,,D]2 [A,,A,]2 | [D,A,]2 [D,A,]>[D,A,] [D,A,]2 :|2 [D,A,]>[D,A,] || %15
w: Je- sus! Come, yes,|come, come to- day!||
 [G,B,]2 [G,B,]2 A,2 [A,,A,]>[A,,A,] | [D,A,]6 |] %17
w: ||
V:4
 x2 | x8 | x8 | x8 | x8 | x8 | x8 | x8 | x6 |: x2 | x8 |1 x8 | x8 | x6 :|2 x2 || x4 A,2 x2 | x6 |] %17

